public/assets/img/components/logo-dusk.svg

<svg xmlns="http://www.w3.org/2000/svg" width="316" height="80" viewBox="0 0 316 80" xmlns:xlink="http://www.w3.org/1999/xlink">
  <defs>
    <linearGradient id="b" x1="50%" x2="50%" y1="0%" y2="100%">
      <stop stop-color="#9B27AD" offset="0%"/>
      <stop stop-color="#F44F4F" offset="100%"/>
    </linearGradient>
    <path id="a" d="M53.2340187,72.3955034 C50.1284193,73.5833046 46.7572102,74.2340187 43.2340187,74.2340187 C27.7700457,74.2340187 15.2340187,61.6979917 15.2340187,46.2340187 C15.2340187,30.7700457 27.7700457,18.2340187 43.2340187,18.2340187 C46.7572102,18.2340187 50.1284193,18.8847329 53.2340187,20.072534 C42.7085378,24.0982232 35.2340187,34.2932372 35.2340187,46.2340187 C35.2340187,58.1748002 42.7085378,68.3698143 53.2340187,72.3955034 L53.2340187,72.3955034 Z"/>
    <mask id="c" width="38" height="56" x="0" y="0" fill="white">
      <use xlink:href="#a"/>
    </mask>
  </defs>
  <g fill="none" fill-rule="evenodd">
    <path fill="#2E2E2E" d="M106.273438,51.3219093 L117.470703,51.3219093 L117.470703,55.5582375 L101,55.5582375 L101,29.9644875 L106.273438,29.9644875 L106.273438,51.3219093 Z M131.181641,55.5582375 C130.947264,55.1012039 130.777344,54.5328502 130.671875,53.8531593 C129.4414,55.2242599 127.841807,55.9098 125.873047,55.9098 C124.009756,55.9098 122.465826,55.3707429 121.241211,54.2926125 C120.016595,53.2144821 119.404297,51.8551207 119.404297,50.2144875 C119.404297,48.1988524 120.15136,46.6519929 121.645508,45.5738625 C123.139656,44.4957321 125.298814,43.9508156 128.123047,43.9390968 L130.460938,43.9390968 L130.460938,42.8492531 C130.460938,41.9703424 130.235354,41.2672245 129.78418,40.7398781 C129.333006,40.2125317 128.621099,39.9488625 127.648438,39.9488625 C126.792964,39.9488625 126.122073,40.1539385 125.635742,40.5640968 C125.149412,40.9742551 124.90625,41.5367495 124.90625,42.2515968 L119.826172,42.2515968 C119.826172,41.1500288 120.166012,40.1305078 120.845703,39.1930031 C121.525394,38.2554984 122.486322,37.5201542 123.728516,36.9869484 C124.970709,36.4537426 126.365227,36.1871437 127.912109,36.1871437 C130.255871,36.1871437 132.116204,36.776005 133.493164,37.9537453 C134.870124,39.1314855 135.558594,40.7867424 135.558594,42.9195656 L135.558594,51.1637062 C135.570313,52.9684027 135.822263,54.3336235 136.314453,55.2594093 L136.314453,55.5582375 L131.181641,55.5582375 Z M126.980469,52.0250343 C127.730473,52.0250343 128.421872,51.8580438 129.054688,51.5240578 C129.687503,51.1900717 130.156248,50.741834 130.460938,50.1793312 L130.460938,46.9098 L128.5625,46.9098 C126.019519,46.9098 124.666016,47.7886974 124.501953,49.5465187 L124.484375,49.8453468 C124.484375,50.4781625 124.707029,50.9996417 125.152344,51.4098 C125.597658,51.8199583 126.207027,52.0250343 126.980469,52.0250343 Z M150.148438,41.3023781 C149.457028,41.2086276 148.847659,41.1617531 148.320313,41.1617531 C146.398428,41.1617531 145.138675,41.8121372 144.541016,43.112925 L144.541016,55.5582375 L139.460938,55.5582375 L139.460938,36.5387062 L144.259766,36.5387062 L144.400391,38.8062843 C145.419927,37.0601819 146.832022,36.1871437 148.636719,36.1871437 C149.199222,36.1871437 149.72656,36.2633148 150.21875,36.4156593 L150.148438,41.3023781 Z M163.085938,55.5582375 C162.851561,55.1012039 162.681641,54.5328502 162.576172,53.8531593 C161.345697,55.2242599 159.746104,55.9098 157.777344,55.9098 C155.914053,55.9098 154.370123,55.3707429 153.145508,54.2926125 C151.920892,53.2144821 151.308594,51.8551207 151.308594,50.2144875 C151.308594,48.1988524 152.055657,46.6519929 153.549805,45.5738625 C155.043953,44.4957321 157.203111,43.9508156 160.027344,43.9390968 L162.365234,43.9390968 L162.365234,42.8492531 C162.365234,41.9703424 162.139651,41.2672245 161.688477,40.7398781 C161.237302,40.2125317 160.525395,39.9488625 159.552734,39.9488625 C158.697261,39.9488625 158.02637,40.1539385 157.540039,40.5640968 C157.053709,40.9742551 156.810547,41.5367495 156.810547,42.2515968 L151.730469,42.2515968 C151.730469,41.1500288 152.070309,40.1305078 152.75,39.1930031 C153.429691,38.2554984 154.390619,37.5201542 155.632813,36.9869484 C156.875006,36.4537426 158.269524,36.1871437 159.816406,36.1871437 C162.160168,36.1871437 164.020501,36.776005 165.397461,37.9537453 C166.774421,39.1314855 167.462891,40.7867424 167.462891,42.9195656 L167.462891,51.1637062 C167.474609,52.9684027 167.72656,54.3336235 168.21875,55.2594093 L168.21875,55.5582375 L163.085938,55.5582375 Z M158.884766,52.0250343 C159.634769,52.0250343 160.326169,51.8580438 160.958984,51.5240578 C161.5918,51.1900717 162.060545,50.741834 162.365234,50.1793312 L162.365234,46.9098 L160.466797,46.9098 C157.923815,46.9098 156.570313,47.7886974 156.40625,49.5465187 L156.388672,49.8453468 C156.388672,50.4781625 156.611326,50.9996417 157.056641,51.4098 C157.501955,51.8199583 158.111324,52.0250343 158.884766,52.0250343 Z M178.220703,49.3531593 L181.753906,36.5387062 L187.0625,36.5387062 L180.646484,55.5582375 L175.794922,55.5582375 L169.378906,36.5387062 L174.6875,36.5387062 L178.220703,49.3531593 Z M197.820313,55.9098 C195.031236,55.9098 192.760751,55.0543398 191.008789,53.3433937 C189.256827,51.6324477 188.380859,49.3531736 188.380859,46.5055031 L188.380859,46.0133156 C188.380859,44.1031498 188.749996,42.3951591 189.488281,40.8892922 C190.226566,39.3834252 191.272454,38.2232806 192.625977,37.4088234 C193.979499,36.5943662 195.523429,36.1871437 197.257813,36.1871437 C199.859388,36.1871437 201.907219,37.007448 203.401367,38.6480812 C204.895515,40.2887144 205.642578,42.614863 205.642578,45.6265968 L205.642578,47.7008156 L193.53125,47.7008156 C193.695313,48.9430093 194.190426,49.9390931 195.016602,50.6890968 C195.842778,51.4391006 196.888666,51.8140968 198.154297,51.8140968 C200.111338,51.8140968 201.640619,51.1051196 202.742188,49.6871437 L205.238281,52.4820656 C204.476559,53.560196 203.445319,54.4010079 202.144531,55.0045265 C200.843743,55.6080452 199.402352,55.9098 197.820313,55.9098 Z M197.240234,40.300425 C196.232417,40.300425 195.415042,40.6402653 194.788086,41.3199562 C194.16113,41.9996471 193.759767,42.9722936 193.583984,44.237925 L200.650391,44.237925 L200.650391,43.8336281 C200.626953,42.7086225 200.322269,41.838514 199.736328,41.2232765 C199.150388,40.6080391 198.318365,40.300425 197.240234,40.300425 Z M213.886719,55.5582375 L208.789063,55.5582375 L208.789063,28.5582375 L213.886719,28.5582375 L213.886719,55.5582375 Z M228.107422,55.5582375 L228.107422,29.9644875 L235.261719,29.9644875 C237.359385,29.9644875 239.240226,30.4420218 240.904297,31.3971047 C242.568368,32.3521876 243.866206,33.7203379 244.797852,35.5015968 C245.729497,37.2828557 246.195313,39.3101792 246.195313,41.5836281 L246.195313,43.9390968 C246.195313,46.2242645 245.732427,48.251588 244.806641,50.0211281 C243.880855,51.7906682 242.577157,53.1558889 240.895508,54.1168312 C239.213859,55.0777735 237.283214,55.5582375 235.103516,55.5582375 L228.107422,55.5582375 Z M230.269531,31.8101906 L230.269531,53.7301125 L235.121094,53.7301125 C237.81642,53.7301125 239.978507,52.8365667 241.607422,51.0494484 C243.236336,49.2623301 244.050781,46.8453621 244.050781,43.7984718 L244.050781,41.5484718 C244.050781,38.6070509 243.248055,36.2516057 241.642578,34.4820656 C240.037101,32.7125255 237.921888,31.8219094 235.296875,31.8101906 L230.269531,31.8101906 Z M263.421875,53.1500343 C262.156244,54.9898873 260.13478,55.9098 257.357422,55.9098 C255.330068,55.9098 253.789068,55.3209387 252.734375,54.1431984 C251.679682,52.9654581 251.140625,51.2223115 251.117188,48.9137062 L251.117188,36.5387062 L253.208984,36.5387062 L253.208984,48.6500343 C253.208984,52.2711462 254.673813,54.081675 257.603516,54.081675 C260.650406,54.081675 262.578121,52.8219219 263.386719,50.3023781 L263.386719,36.5387062 L265.496094,36.5387062 L265.496094,55.5582375 L263.457031,55.5582375 L263.421875,53.1500343 Z M282.353516,50.7242531 C282.353516,49.6812791 281.934575,48.8433969 281.09668,48.2105812 C280.258785,47.5777656 278.996102,47.0826533 277.308594,46.7252297 C275.621085,46.367806 274.311528,45.9576538 273.379883,45.4947609 C272.448238,45.031868 271.756838,44.4664439 271.305664,43.7984718 C270.85449,43.1304998 270.628906,42.3219141 270.628906,41.3726906 C270.628906,39.8726831 271.255853,38.6334377 272.509766,37.6549172 C273.763678,36.6763966 275.369131,36.1871437 277.326172,36.1871437 C279.447276,36.1871437 281.149408,36.7115525 282.432617,37.7603859 C283.715827,38.8092193 284.357422,40.1773697 284.357422,41.8648781 L282.248047,41.8648781 C282.248047,40.7515913 281.782231,39.8258193 280.850586,39.0875343 C279.918941,38.3492494 278.744148,37.9801125 277.326172,37.9801125 C275.943352,37.9801125 274.833012,38.2877266 273.995117,38.902964 C273.157222,39.5182015 272.738281,40.3179982 272.738281,41.3023781 C272.738281,42.2516016 273.086911,42.9869458 273.78418,43.5084328 C274.481449,44.0299198 275.75292,44.507454 277.598633,44.94105 C279.444345,45.3746459 280.827144,45.8375319 281.74707,46.3297218 C282.666997,46.8219118 283.349607,47.4137028 283.794922,48.1051125 C284.240237,48.7965222 284.462891,49.6344044 284.462891,50.6187843 C284.462891,52.2242611 283.815436,53.5074514 282.520508,54.4683937 C281.225579,55.429336 279.535167,55.9098 277.449219,55.9098 C275.234364,55.9098 273.438483,55.3736725 272.061523,54.3014015 C270.684563,53.2291305 269.996094,51.8726988 269.996094,50.2320656 L272.105469,50.2320656 C272.1875,51.4625405 272.70605,52.4205387 273.661133,53.106089 C274.616216,53.7916393 275.878898,54.1344093 277.449219,54.1344093 C278.91407,54.1344093 280.097652,53.8121469 281,53.1676125 C281.902348,52.523078 282.353516,51.708633 282.353516,50.7242531 Z M293.708984,45.9781593 L291.300781,48.2984718 L291.300781,55.5582375 L289.191406,55.5582375 L289.191406,28.5582375 L291.300781,28.5582375 L291.300781,45.8375343 L293.287109,43.6930031 L300.564453,36.5387062 L303.21875,36.5387062 L295.150391,44.5543312 L303.921875,55.5582375 L301.408203,55.5582375 L293.708984,45.9781593 Z"/>
    <path fill="url(#b)" d="M41,80 C18.90861,80 1,62.09139 1,40 C1,17.90861 18.90861,0 41,0 C63.09139,0 81,17.90861 81,40 C81,62.09139 63.09139,80 41,80 Z"/>
    <use stroke="#FFFFFF" stroke-width="8" mask="url(#c)" transform="rotate(-45 34.234 46.234)" xlink:href="#a"/>
  </g>
</svg>

<svg xmlns="http://www.w3.org/2000/svg" width="316" height="80" viewBox="0 0 316 80" xmlns:xlink="http://www.w3.org/1999/xlink"><defs><linearGradient id="b" x1="50%" x2="50%" y1="0%" y2="100%"><stop stop-color="#9B27AD" offset="0%"/><stop stop-color="#F44F4F" offset="100%"/></linearGradient><path id="a" d="M53.234 72.396c-3.106 1.187-6.477 1.838-10 1.838-15.464 0-28-12.536-28-28s12.536-28 28-28c3.523 0 6.894.65 10 1.84-10.525 4.024-18 14.22-18 26.16s7.475 22.136 18 26.162z"/><mask id="c" width="38" height="56" x="0" y="0" fill="#fff"><use xlink:href="#a"/></mask></defs><g fill="none" fill-rule="evenodd"><path fill="#2E2E2E" d="M106.273 51.322h11.198v4.236H101V29.964h5.273v21.358zm24.91 4.236c-.236-.457-.406-1.025-.51-1.705-1.232 1.37-2.83 2.057-4.8 2.057-1.863 0-3.407-.54-4.632-1.617-1.223-1.08-1.836-2.438-1.836-4.08 0-2.014.747-3.56 2.242-4.64 1.494-1.077 3.653-1.622 6.477-1.634h2.338v-1.09c0-.88-.225-1.583-.676-2.11-.45-.527-1.163-.79-2.136-.79-.855 0-1.526.204-2.012.614-.487.41-.73.973-.73 1.688h-5.08c0-1.102.34-2.12 1.02-3.06.68-.937 1.64-1.672 2.883-2.205 1.24-.533 2.635-.8 4.182-.8 2.344 0 4.204.59 5.58 1.767 1.378 1.177 2.067 2.833 2.067 4.966v8.244c.01 1.804.262 3.17.754 4.095v.298h-5.132zm-4.203-3.533c.75 0 1.442-.167 2.075-.5.633-.335 1.1-.783 1.406-1.346v-3.27h-1.898c-2.542 0-3.896.88-4.06 2.637l-.018.298c0 .633.223 1.155.668 1.565.446.41 1.055.615 1.828.615zm23.168-10.723c-.69-.093-1.3-.14-1.828-.14-1.922 0-3.18.65-3.78 1.95V55.56h-5.08v-19.02h4.8l.14 2.268c1.02-1.746 2.432-2.62 4.237-2.62.562 0 1.09.077 1.582.23l-.072 4.886zm12.938 14.256c-.234-.457-.404-1.025-.51-1.705-1.23 1.37-2.83 2.057-4.8 2.057-1.862 0-3.406-.54-4.63-1.617-1.225-1.08-1.837-2.438-1.837-4.08 0-2.014.746-3.56 2.24-4.64 1.494-1.077 3.653-1.622 6.477-1.634h2.338v-1.09c0-.88-.225-1.583-.677-2.11-.45-.527-1.163-.79-2.135-.79-.856 0-1.527.204-2.013.614-.486.41-.73.973-.73 1.688h-5.08c0-1.102.34-2.12 1.02-3.06.68-.937 1.64-1.672 2.883-2.205 1.242-.533 2.637-.8 4.183-.8 2.344 0 4.205.59 5.58 1.767 1.378 1.177 2.067 2.833 2.067 4.966v8.244c.012 1.804.264 3.17.756 4.095v.298h-5.134zm-4.2-3.533c.75 0 1.44-.167 2.073-.5.632-.335 1.1-.783 1.405-1.346v-3.27h-1.898c-2.543 0-3.897.88-4.06 2.637l-.018.298c0 .633.22 1.155.667 1.565.445.41 1.054.615 1.828.615zm19.335-2.672l3.534-12.814h5.31l-6.418 19.018h-4.85l-6.417-19.02h5.308l3.533 12.815zm19.6 6.557c-2.79 0-5.06-.856-6.81-2.567-1.753-1.71-2.63-3.99-2.63-6.837v-.493c0-1.91.37-3.618 1.108-5.124.74-1.507 1.784-2.667 3.138-3.48 1.353-.816 2.897-1.223 4.632-1.223 2.6 0 4.65.82 6.143 2.46 1.496 1.642 2.243 3.968 2.243 6.98V47.7H193.53c.165 1.243.66 2.24 1.487 2.99.826.75 1.872 1.124 3.137 1.124 1.957 0 3.487-.71 4.588-2.127l2.496 2.795c-.76 1.078-1.793 1.92-3.093 2.523-1.3.603-2.743.905-4.325.905zm-.58-15.61c-1.008 0-1.825.34-2.452 1.02-.627.68-1.028 1.652-1.204 2.918h7.066v-.404c-.023-1.125-.328-1.995-.914-2.61-.586-.616-1.418-.924-2.496-.924zm16.647 15.258h-5.098v-27h5.097v27zm14.22 0V29.964h7.155c2.097 0 3.978.478 5.642 1.433 1.664.955 2.962 2.323 3.894 4.105.93 1.78 1.397 3.808 1.397 6.082v2.355c0 2.284-.463 4.312-1.388 6.08-.926 1.77-2.23 3.136-3.91 4.097-1.683.96-3.614 1.44-5.793 1.44h-6.997zm2.163-23.748v21.92h4.85c2.696 0 4.86-.893 6.487-2.68 1.63-1.788 2.444-4.205 2.444-7.252v-2.25c0-2.94-.802-5.296-2.407-7.066-1.606-1.77-3.72-2.66-6.346-2.672h-5.027zm33.152 21.34c-1.266 1.84-3.287 2.76-6.065 2.76-2.027 0-3.568-.59-4.623-1.767-1.054-1.178-1.593-2.92-1.617-5.23V36.54h2.092v12.11c0 3.62 1.464 5.432 4.394 5.432 3.046 0 4.974-1.26 5.783-3.78V36.54h2.11v19.018h-2.04l-.035-2.408zm18.932-2.426c0-1.043-.42-1.88-1.257-2.513-.838-.632-2.1-1.127-3.788-1.485-1.69-.357-2.998-.767-3.93-1.23-.932-.463-1.623-1.03-2.074-1.697-.452-.668-.677-1.476-.677-2.425 0-1.5.626-2.74 1.88-3.718 1.254-.98 2.86-1.468 4.816-1.468 2.12 0 3.823.525 5.107 1.573 1.283 1.05 1.924 2.417 1.924 4.105h-2.11c0-1.113-.465-2.04-1.396-2.777-.93-.74-2.106-1.108-3.524-1.108-1.383 0-2.493.308-3.33.923-.84.615-1.258 1.415-1.258 2.4 0 .95.35 1.684 1.046 2.205.697.522 1.97 1 3.815 1.433 1.844.435 3.227.898 4.147 1.39.92.492 1.603 1.084 2.048 1.775.445.692.668 1.53.668 2.514 0 1.604-.648 2.887-1.942 3.848-1.294.96-2.985 1.442-5.07 1.442-2.216 0-4.012-.536-5.388-1.61-1.377-1.07-2.066-2.427-2.066-4.068h2.11c.082 1.23.6 2.19 1.555 2.874.956.686 2.22 1.028 3.79 1.028 1.464 0 2.648-.322 3.55-.966.902-.645 1.354-1.46 1.354-2.444zm11.355-4.746l-2.41 2.32v7.26h-2.11v-27h2.11v17.28l1.987-2.145 7.277-7.154h2.655l-8.07 8.014 8.772 11.004h-2.514l-7.7-9.58z"/><path fill="url(#b)" d="M41 80C18.91 80 1 62.09 1 40S18.91 0 41 0s40 17.91 40 40-17.91 40-40 40z"/><use stroke="#FFF" stroke-width="8" mask="url(#c)" transform="rotate(-45 34.234 46.234)" xlink:href="#a"/></g></svg>
